svgs/sharp-light/school-flag.svg

<svg xmlns="http://www.w3.org/2000/svg" viewBox="0 0 576 512"><!--! Font Awesome Pro 6.6.0 by @fontawesome - https://fontawesome.com License - https://fontawesome.com/license (Commercial License) Copyright 2024 Fonticons, Inc. --><path d="M304 32l0 32 80 0 0-32-80 0zM272 0l32 0 80 0 32 0 0 32 0 32 0 32-32 0-68.5 0 89.6 64L560 160l16 0 0 16 0 320 0 16-16 0-208 0-32 0-64 0-32 0L16 512 0 512l0-16L0 176l0-16 16 0 154.9 0L272 87.8 272 64l0-32 0-32zm48 416c0-17.7-14.3-32-32-32s-32 14.3-32 32l0 64 64 0 0-64zm32 64l192 0 0-288-144 0-5.1 0-4.2-3L288 115.7 185.3 189l-4.2 3-5.1 0L32 192l0 288 192 0 0-64c0-35.3 28.7-64 64-64s64 28.7 64 64l0 64zM256 240a32 32 0 1 0 64 0 32 32 0 1 0 -64 0zm32 64a64 64 0 1 1 0-128 64 64 0 1 1 0 128zM64 224l16 0 64 0 16 0 0 16 0 64 0 16-16 0-64 0-16 0 0-16 0-64 0-16zm32 32l0 32 32 0 0-32-32 0zm336-32l64 0 16 0 0 16 0 64 0 16-16 0-64 0-16 0 0-16 0-64 0-16 16 0zm48 64l0-32-32 0 0 32 32 0zM64 352l16 0 64 0 16 0 0 16 0 64 0 16-16 0-64 0-16 0 0-16 0-64 0-16zm32 32l0 32 32 0 0-32-32 0zm336-32l64 0 16 0 0 16 0 64 0 16-16 0-64 0-16 0 0-16 0-64 0-16 16 0zm16 64l32 0 0-32-32 0 0 32z"/></svg>

<svg xmlns="http://www.w3.org/2000/svg" viewBox="0 0 576 512"><!--! Font Awesome Pro 6.5.2 by @fontawesome - https://fontawesome.com License - https://fontawesome.com/license (Commercial License) Copyright 2024 Fonticons, Inc. --><path d="M304 32V64h80V32H304zM272 0h32 80 32V32 64 96H384 315.5l89.6 64H560h16v16V496v16H560 352 320 256 224 16 0V496 176 160H16 170.9L272 87.8V64 32 0zm48 416c0-17.7-14.3-32-32-32s-32 14.3-32 32v64h64V416zm32 64H544V192H400h-5.1l-4.2-3L288 115.7 185.3 189l-4.2 3H176 32V480H224V416c0-35.3 28.7-64 64-64s64 28.7 64 64v64zM256 240a32 32 0 1 0 64 0 32 32 0 1 0 -64 0zm32 64a64 64 0 1 1 0-128 64 64 0 1 1 0 128zM64 224H80h64 16v16 64 16H144 80 64V304 240 224zm32 32v32h32V256H96zm336-32h64 16v16 64 16H496 432 416V304 240 224h16zm48 64V256H448v32h32zM64 352H80h64 16v16 64 16H144 80 64V432 368 352zm32 32v32h32V384H96zm336-32h64 16v16 64 16H496 432 416V432 368 352h16zm16 64h32V384H448v32z"/></svg>
